X:492
T:Touch Me If You Dare
R:reel
Z:id:hn-reel-492
M:C|
K:G
dc | BG~G2 AGED | BGGF GBdc | BG~G2 AGED | EAAG A2dc |
BG~G2 AGED | BGGF GBdc | BG~G2 AGED | (3EFG FA G2 :|
|: Bc | dega bgag | (3efg dg (3efg dB | dega bgag | eaag a2ge |
dega bgag | (3efg dg (3efg dc | BG~G2 AGED | (3EFG FA G2 :|
P:variations
|: dc | BG~G2 AGEG | BG~G2 (3Bcd gd | BG~G2 AGED | EAAG A2GA |
BG~G2 AGEG | BG ~G2 Bdgd | ~B3G AGED | EGGF G2 :|
|: ge | dega bgag | egdg egdB | dega bgag | eaag a2ge |
dega bgag | egdg egdc | ~B3G AGED | EGGF G2 :|

